icons/quote-right.svg

<svg xmlns="http://www.w3.org/2000/svg" width="24" height="24" viewBox="0 0 24 24">
    <path fill="#3A3A47" fill-rule="evenodd" d="M8 6c1.601 0 3 1.001 3 3.971 0 4.495-1.333 7.171-4 8.029H5c3.976-1.985 3.253-6 3-6-1.644 0-3-1.334-3-3.023S6.399 6 8 6zm8 0c1.601 0 3 1.001 3 3.971 0 4.495-1.333 7.171-4 8.029h-2c3.976-1.985 3.253-6 3-6-1.644 0-3-1.334-3-3.023S14.399 6 16 6z"/>
</svg>

<svg width="24" height="24" viewBox="0 0 24 24" fill="none" xmlns="http://www.w3.org/2000/svg">
<path fill-rule="evenodd" clip-rule="evenodd" d="M8 12C6.356 12 5 10.666 5 8.977C5 7.288 6.399 6 8 6C9.601 6 11 7.001 11 9.971C11 14.466 9.667 17.142 7 18H5C8.976 16.015 8.253 12 8 12ZM16 12C14.356 12 13 10.666 13 8.977C13 7.288 14.399 6 16 6C17.601 6 19 7.001 19 9.971C19 14.466 17.667 17.142 15 18H13C16.976 16.015 16.253 12 16 12Z" fill="#3A3A47"/>
</svg>
